X:56
M:C
L:1/8
Q:1/4=140
K:A
c/>B/|AFEC EEEc/B/|A<F E>C B,2 B,c/B/|A>FEC FF EC/>B,/|
d|c>Ae>c d/c/B/A/ e>d|c>Ad>c B2 B<d|c>Ae>c f/a/g/a/ g/f/e/d/|
d>ccG A2 Ac/B/|A<ae<c F/G/A E>C|A>CA>C B,2 B,C/D/|E>F A<c B<c A>E|

